public/img/decorations/deco-blob-9.svg

<svg width="183" height="166" viewBox="0 0 183 166" fill="none" xmlns="http://www.w3.org/2000/svg">
<path d="M2.34805 65.6701C4.02805 62.9901 5.56905 60.211 7.41605 57.652C10.82 52.939 14.734 48.636 18.627 44.322C21.811 40.794 24.9 37.181 28.08 33.65C30.619 30.831 32.879 27.721 36.068 25.554C39.035 23.539 42.066 21.62 45.039 19.616C46.439 18.674 47.812 17.682 49.123 16.624C51.525 14.687 54.035 12.972 56.996 11.982C57.787 11.717 58.5371 11.285 59.2561 10.847C63.3111 8.36802 67.328 5.82603 71.408 3.38703C73.033 2.41503 74.7361 1.53704 76.4881 0.824045C78.4981 0.00604486 80.615 -0.0229468 82.701 0.670053C84.805 1.36905 86.912 2.05405 88.994 2.81205C90.217 3.25705 91.426 3.55605 92.701 3.15705C94.228 2.67905 95.5971 3.14904 96.9921 3.72804C99.4631 4.75604 101.484 6.48703 103.691 7.92603C104.574 8.50203 105.353 9.24603 106.257 9.77903C107.429 10.469 108.624 11.197 109.905 11.604C112.95 12.57 115.751 13.945 118.466 15.634C124.386 19.315 130.482 22.6901 137.122 24.9461C141.015 26.2681 144.968 27.425 148.802 28.897C153.036 30.522 157.224 32.289 161.009 34.866C162.577 35.934 164.195 36.928 165.802 37.937C171.439 41.473 175.253 46.641 178.368 52.335C180.1 55.5 180.626 59.127 181.403 62.633C182.262 66.502 182.116 70.416 181.868 74.311C181.587 78.733 181.095 83.142 180.665 87.554C180.462 89.618 179.534 91.337 178.192 92.927C175.192 96.484 172.45 100.218 170.514 104.504C169.549 106.642 168.932 108.863 168.332 111.109C167.514 114.168 166.631 117.2 165.352 120.117C163.209 124.994 160.215 129.302 156.885 133.411C156.498 133.89 156.188 134.472 155.996 135.057C155.039 137.993 153.416 140.578 151.975 143.28C149.35 148.2 145.637 152.224 142.088 156.405C141.611 156.967 141.123 157.548 140.539 157.985C136.902 160.704 133.254 163.385 128.863 164.86C126.806 165.552 124.752 165.891 122.634 165.534C120.347 165.149 117.966 164.899 115.843 164.048C113.527 163.117 111.435 161.605 109.294 160.267C107.773 159.316 106.386 158.149 104.851 157.226C101.417 155.162 97.923 153.198 94.464 151.177C93.37 150.539 92.3001 149.863 91.2301 149.187C90.7851 148.904 90.4021 148.509 89.9331 148.281C85.2771 146.008 81.023 143.033 76.49 140.568C71.861 138.051 67.103 135.705 61.888 134.538C61.374 134.423 60.837 134.338 60.361 134.126C54.332 131.453 47.812 130.439 41.547 128.568C37.799 127.449 34.072 126.33 30.547 124.58C26.953 122.795 23.2871 121.148 19.6391 119.475C16.4031 117.991 13.774 115.777 11.504 113.057C9.25404 110.358 7.32204 107.492 6.06804 104.188C4.82404 100.913 3.92305 97.569 3.70305 94.057C3.63705 93.004 3.53704 91.946 3.33804 90.912C2.34204 85.728 1.53504 80.525 0.926042 75.276C0.531042 71.872 1.00605 68.7731 2.34805 65.6701ZM57.891 130.289C57.84 130.228 57.791 130.168 57.741 130.107C57.682 130.158 57.5811 130.203 57.5751 130.257C57.5711 130.312 57.657 130.416 57.714 130.422C57.766 130.429 57.83 130.338 57.891 130.289ZM111.725 160.38C111.678 160.322 111.635 160.227 111.582 160.22C111.531 160.213 111.469 160.302 111.412 160.349C111.459 160.406 111.502 160.502 111.555 160.507C111.608 160.512 111.668 160.426 111.725 160.38ZM141.531 85.2951L141.57 85.501L141.736 85.369L141.531 85.2951Z" fill="black"/>
</svg>

<svg width="183" height="166" fill="none" xmlns="http://www.w3.org/2000/svg"><path d="M2.348 65.67c1.68-2.68 3.221-5.459 5.068-8.018 3.404-4.713 7.318-9.016 11.211-13.33 3.184-3.528 6.273-7.141 9.453-10.672 2.539-2.819 4.799-5.929 7.988-8.096 2.967-2.015 5.998-3.934 8.971-5.938a58.477 58.477 0 004.084-2.992c2.402-1.937 4.912-3.652 7.873-4.642.791-.265 1.541-.697 2.26-1.135 4.055-2.479 8.072-5.021 12.152-7.46a37.469 37.469 0 015.08-2.563c2.01-.818 4.127-.847 6.213-.154 2.104.7 4.211 1.384 6.293 2.142 1.223.445 2.432.744 3.707.345 1.527-.478 2.896-.008 4.291.571 2.471 1.028 4.492 2.759 6.699 4.198.883.576 1.662 1.32 2.566 1.853 1.172.69 2.367 1.418 3.648 1.825 3.045.966 5.846 2.341 8.561 4.03 5.92 3.681 12.016 7.056 18.656 9.312 3.893 1.322 7.846 2.479 11.68 3.951 4.234 1.625 8.422 3.392 12.207 5.969 1.568 1.068 3.186 2.062 4.793 3.071 5.637 3.536 9.451 8.704 12.566 14.398 1.732 3.165 2.258 6.792 3.035 10.298.859 3.869.713 7.783.465 11.678-.281 4.422-.773 8.831-1.203 13.243-.203 2.064-1.131 3.783-2.473 5.373-3 3.557-5.742 7.291-7.678 11.577-.965 2.138-1.582 4.359-2.182 6.605-.818 3.059-1.701 6.091-2.98 9.008-2.143 4.877-5.137 9.185-8.467 13.294a5.298 5.298 0 00-.889 1.646c-.957 2.936-2.58 5.521-4.021 8.223-2.625 4.92-6.338 8.944-9.887 13.125-.477.562-.965 1.143-1.549 1.58-3.637 2.719-7.285 5.4-11.676 6.875-2.057.692-4.111 1.031-6.229.674-2.287-.385-4.668-.635-6.791-1.486-2.316-.931-4.408-2.443-6.549-3.781-1.521-.951-2.908-2.118-4.443-3.041-3.434-2.064-6.928-4.028-10.387-6.049a106.954 106.954 0 01-3.234-1.99c-.445-.283-.828-.678-1.297-.906-4.656-2.273-8.91-5.248-13.443-7.713-4.629-2.517-9.387-4.863-14.602-6.03-.514-.115-1.051-.2-1.527-.412-6.029-2.673-12.549-3.687-18.814-5.558-3.748-1.119-7.475-2.238-11-3.988-3.594-1.785-7.26-3.432-10.908-5.105-3.236-1.484-5.865-3.698-8.135-6.418-2.25-2.699-4.182-5.565-5.436-8.869-1.244-3.275-2.145-6.619-2.365-10.131-.066-1.053-.166-2.111-.365-3.145A212.705 212.705 0 01.926 75.276c-.395-3.404.08-6.503 1.422-9.606zm55.543 64.619l-.15-.182c-.059.051-.16.096-.166.15-.004.055.082.159.139.165.052.007.116-.084.177-.133zm53.834 30.091c-.047-.058-.09-.153-.143-.16-.051-.007-.113.082-.17.129.047.057.09.153.143.158.053.005.113-.081.17-.127zm29.806-75.085l.039.206.166-.132-.205-.074z" fill="#000"/></svg>
